icons/svgs/road-solid.svg

<svg width="24" height="24" viewBox="0 0 24 24" fill="none" xmlns="http://www.w3.org/2000/svg">
<path d="M11.25 3.25V5.75C11.25 6.45312 11.7969 7 12.5 7C13.1641 7 13.75 6.45312 13.75 5.75V3.25H16.6406C17.6953 3.25 18.6719 3.95312 19.0234 4.92969L23.5938 17.9375C23.6719 18.1328 23.75 18.4062 23.75 18.6406C23.75 19.8125 22.7734 20.75 21.6016 20.75H13.75V18.25C13.75 17.5859 13.1641 17 12.5 17C11.7969 17 11.25 17.5859 11.25 18.25V20.75H3.35938C2.1875 20.75 1.25 19.8125 1.25 18.6406C1.25 18.4062 1.28906 18.1328 1.36719 17.9375L5.9375 4.92969C6.28906 3.95312 7.26562 3.25 8.32031 3.25H11.25ZM13.75 10.75C13.75 10.0859 13.1641 9.5 12.5 9.5C11.7969 9.5 11.25 10.0859 11.25 10.75V13.25C11.25 13.9531 11.7969 14.5 12.5 14.5C13.1641 14.5 13.75 13.9531 13.75 13.25V10.75Z" fill="black"/>
</svg>

<svg xmlns="http://www.w3.org/2000/svg" width="24" height="24" fill="currentColor" class="icon-road-solid" viewBox="0 0 24 24">
  <mask id="a" width="23" height="18" x="1" y="3" maskUnits="userSpaceOnUse" style="mask-type:alpha">
    <path d="M11.25 3.25v2.5c0 .703.547 1.25 1.25 1.25.664 0 1.25-.547 1.25-1.25v-2.5h2.89c1.055 0 2.032.703 2.383 1.68l4.57 13.008c.079.195.157.468.157.703 0 1.172-.977 2.109-2.148 2.109H13.75v-2.5c0-.664-.586-1.25-1.25-1.25-.703 0-1.25.586-1.25 1.25v2.5H3.36a2.1 2.1 0 0 1-2.11-2.11c0-.234.04-.507.117-.703L5.937 4.93c.352-.977 1.329-1.68 2.383-1.68zm2.5 7.5c0-.664-.586-1.25-1.25-1.25-.703 0-1.25.586-1.25 1.25v2.5c0 .703.547 1.25 1.25 1.25.664 0 1.25-.547 1.25-1.25z"/>
  </mask>
  <g mask="url(#a)">
    <path d="M0 0h24v24H0z"/>
  </g>
</svg>
